X: 4384
M: C
L: 1/8
K: G
(ef)g2 f2e2 | d4 c4 | BAGc B2(A>G) | G6 ::\
b2 |\
a2g2 (fg)a2 | d4 c4 | B2(cB) A2G2 | d6 a2 |\
edef e2e2 |
e4 f4 | g2(fe) f2(ed) | d4 c4 |\
efg2 f2e2 | d4 c4 | BAGc B2(A>G) | G6 :|\
[K:=f][K:C]\
|: G2 |\
c4 B4 | c2(BA) G2A2 |
[1 G2c2 B2A2 | B2d2 G2G2 | G2(AB) c2^F2 | G6 :|\
[2 AGF2 cBA2 | GFE2 GFE2 :|\
e4 (dcBA) | GcBA G2F2 | E4 D4 | "_D.C."C6 |]


